storage/app/icons/phosphoricons/bold/ticket-bold.svg

<svg xmlns="http://www.w3.org/2000/svg" fill="currentColor" viewBox="0 0 256 256"><path d="M232 108a12 12 0 0 0 12-12V64a20 20 0 0 0-20-20H32a20 20 0 0 0-20 20v32a12 12 0 0 0 12 12 20 20 0 0 1 0 40 12 12 0 0 0-12 12v32a20 20 0 0 0 20 20h192a20 20 0 0 0 20-20v-32a12 12 0 0 0-12-12 20 20 0 0 1 0-40M36 170.34a44 44 0 0 0 0-84.68V68h52v120H36Zm184 0V188H112V68h108v17.66a44 44 0 0 0 0 84.68"/></svg>

<svg xmlns="http://www.w3.org/2000/svg" viewBox="0 0 256 256" fill="currentColor"><path d="M232,108a12,12,0,0,0,12-12V64a20,20,0,0,0-20-20H32A20,20,0,0,0,12,64V96a12,12,0,0,0,12,12,20,20,0,0,1,0,40,12,12,0,0,0-12,12v32a20,20,0,0,0,20,20H224a20,20,0,0,0,20-20V160a12,12,0,0,0-12-12,20,20,0,0,1,0-40ZM36,170.34a44,44,0,0,0,0-84.68V68H88V188H36Zm184,0V188H112V68H220V85.66a44,44,0,0,0,0,84.68Z"/></svg>
